X:1
T:The Forfar Soldier
M:6/8
L:1/4
K:G
 d/2| G G/2 d d/2| c B/2 A A/2| G B/2 d d/2| c3/2 d d/2| e e/2 d d/2|\
 c B/2 A B/2| d d/2 D D/2| G3/2 B A/2| G3/2- G D/2| B,3/2- B, B,/2|\
 D/2D/2D/2 D D/2| D- E/2 G||
